X:1
T:Wars of Germany
M:4/4
L:1/8
K:D
 A,2| D3 E F2E-D| A, A,3- A,3 B,| =C2 D2 B,- A,2 G,| A,6F-G| A3 A B2 A2|\
 GG A4 G2| F3 D G2 F2| E6F-G| A3 A B3 A| GG A4 G2| F2- D2E-DA,-F,|\
 G,6 A,A,| D3 E F3 E| D2 A,2 A,2 A,B,| =C D3 B,- A,2 G,| A,8|

